!!!!SEGMENT: pl-sa--152-a-iv-2--006_bauer--missa-in-f-agnus-dei.krn
!!!cenid: 17xx:677
!!!COM: Bauer
!!!COM-rismid: pe30005329
!!!CDT:
!!!CNT:
!!!OPR: Missa in F
!!!OTL: Agnus Dei
!!!OMV: 006
!!!PDT:
!!!AGN: Sacred; Mass
!!!SMS-siglum: PL-SA
!!!SMS-shelfmark: 152/A IV 2
!!!SMS-shelfwork: 001-006 M
!!!SMS-variant:
!!!SMS-altvar:
!!!NIFC-rismid: 1001035512
!!!URL-scan: http://bc.bdsandomierz.pl/dlibra/publication/1538/edition/1506/content
!!!ONB-nifc: UWAGA: części Mszy: Kyrie, Gloria, Credo, Sanctus, Benedictus, Agnus Dei, Dona nobis
!!!key:
**kern	**dynam	**kern	**dynam	**kern	**dynam	**kern	**text	**kern	**text	**kern	**text	**kern	**kern	**kern
*part9	*part9	*part8	*part8	*part7	*part7	*part6	*part6	*part5	*part5	*part4	*part4	*part3	*part2	*part1
*staff9	*	*staff8	*	*staff7	*	*staff6	*staff6	*staff5	*staff5	*staff4	*staff4	*staff3	*staff2	*staff1
*group5	*	*group4	*	*group4	*	*group3	*	*group3	*	*group3	*	*group2	*group2	*group1
*Iorgan	*	*Ivioln	*	*Ivioln	*	*Iempty	*	*Itenor	*	*Ivox	*	*Iempty	*Iempty	*Iflt
*I"Organo	*	*I"Violino Secondo:	*	*I"Violino Primo	*	*I"Baſso.	*	*I"Tenore.	*	*I"Canto	*	*I"Cornu Secondo: in F	*I"Cornu Primo in F	*I"Flauto Primo
*I'org.	*	*I'vl 2	*	*I'vl 1	*	*I'B	*	*I'T	*	*I'S	*	*I'cor 2	*I'cor 1	*I'fl 1
*clefF4	*	*clefG2	*	*clefG2	*	*clefF4	*	*clefC4	*	*clefC1	*	*clefG2	*clefG2	*clefG2
*	*	*	*	*	*	*	*	*	*	*	*	*ITrd4c7	*ITrd4c7	*
*k[b-]	*	*k[b-]	*	*k[b-]	*	*k[b-]	*	*k[b-]	*	*k[b-]	*	*k[b-]	*k[b-]	*k[b-]
*F:	*	*F:	*	*F:	*	*F:	*	*F:	*	*F:	*	*	*	*F:
*M2/4	*	*M2/4	*	*M2/4	*	*M2/4	*	*M2/4	*	*M2/4	*	*M2/4	*M2/4	*M2/4
=1	=1	=1	=1	=1	=1	=1	=1	=1	=1	=1	=1	=1	=1	=1
!	!	!	!	!	!	!	!	!LO:TX:a:t=problem: partia nie uwzględniona na karcie tytułowej. W skanach na końcu.	!	!	!	!	!	!
!	!	!	!LO:DY:t=p:	!	!LO:DY:t=p:	!	!	!LO:TX:a:t=problem: partia napisana inną ręką; duplikat partii basu.	!	!	!	!LO:N:vis=00	!LO:N:vis=00	!LO:N:vis=00
!LO:TX:a:t=Ada:	!	!LO:TX:a:t=Ada:	!	!LO:TX:a:t=Andante	!	!LO:TX:a:t=Solo	!	!LO:TX:a:t=Solo:	!	!LO:TX:a:t=Solo	!	!LO:TX:a:t=8.	!LO:TX:a:t=Ada:	!LO:TX:a:t=8.
!LO:TX:b:t=Agnus	!	!LO:TX:b:t=Agnus	!	!LO:TX:b:t=Agnus	!	!LO:TX:a:t=Ada:	!	!LO:TX:a:t=Adagio	!	!LO:TX:a:t=Ada:	!	!LO:TX:b:t=Agnus	!LO:TX:b:t=Agnus	!LO:TX:b:t=Agnus
!	!	!	!	!	!	!LO:N:vis=00	!	!LO:N:vis=00	!	!	!	!	!	!
8r	.	8r	p	8r	p	0r	.	0r	.	4.cc\	A-	0r	0r	0r
8F\L	.	8a\L	.	8cc'\L	.	.	.	.	.	.	.	.	.	.
8F\	.	8a\	.	8cc'\	.	.	.	.	.	.	.	.	.	.
8F\J	.	8a\J	.	8cc'\J	.	.	.	.	.	8ff\	-gnus	.	.	.
=2	=2	=2	=2	=2	=2	=2	=2	=2	=2	=2	=2	=2	=2	=2
.	.	.	.	.	.	.	.	.	.	8qqgg/	.	.	.	.
8r	.	8r	.	8r	.	.	.	.	.	16ff\LL	De-	.	.	.
.	.	.	.	.	.	.	.	.	.	16ee\JJ	.	.	.	.
8G\L	.	8b-\L	.	8ee'\L	.	.	.	.	.	8ee\	-i	.	.	.
8G\	.	8b-\	.	8ee'\	.	.	.	.	.	8r	.	.	.	.
8G\J	.	8b-\J	.	8ee'\J	.	.	.	.	.	8gg\	qui	.	.	.
=3	=3	=3	=3	=3	=3	=3	=3	=3	=3	=3	=3	=3	=3	=3
8r	.	8r	.	8r	.	.	.	.	.	8gg\	tol-	.	.	.
8C/L	.	8cc\L	.	8ee'\L	.	.	.	.	.	16b-\	-lis	.	.	.
.	.	.	.	.	.	.	.	.	.	16dd\	pec-	.	.	.
8C/	.	8cc\	.	8ee'\	.	.	.	.	.	8cc\	-ca-	.	.	.
8C/J	.	8cc\J	.	8ee'\J	.	.	.	.	.	8b-\	-ta	.	.	.
=4	=4	=4	=4	=4	=4	=4	=4	=4	=4	=4	=4	=4	=4	=4
8r	.	8r	.	8r	.	.	.	.	.	16b-\LL	mun-	.	.	.
.	.	.	.	.	.	.	.	.	.	16a\JJ	.	.	.	.
!LO:TX:t=P:problem=mixed beam	!	!	!	!	!	!	!	!	!	!	!	!	!	!
8F\L	.	8a`/L	.	8cc'\L	.	.	.	.	.	8a\	-di	.	.	.
8C\	.	(8a/	.	(8cc\	.	.	.	.	.	8r	.	.	.	.
8FF/J	.	8f/J)	.	8a\J)	.	.	.	.	.	16cc\	mi-	.	.	.
.	.	.	.	.	.	.	.	.	.	16cc\	-se-	.	.	.
=5	=5	=5	=5	=5	=5	=5	=5	=5	=5	=5	=5	=5	=5	=5
!	!	!	!	!	!	!LO:N:vis=00	!	!LO:N:vis=00	!	!	!	!LO:N:vis=00	!LO:N:vis=00	!LO:N:vis=00
8r	.	8r	.	8r	.	0r	.	0r	.	8.cc\L	-re-	0r	0r	0r
8F\L	.	8a/L	.	8cc\L	.	.	.	.	.	.	.	.	.	.
.	.	.	.	.	.	.	.	.	.	16a\Jk	.	.	.	.
8F\	.	8a/	.	8cc\	.	.	.	.	.	16aa\LL	-re	.	.	.
.	.	.	.	.	.	.	.	.	.	16ff\	.	.	.	.
8F\J	.	8a/J	.	8cc\J	.	.	.	.	.	16cc\	.	.	.	.
.	.	.	.	.	.	.	.	.	.	16a\JJ	.	.	.	.
=6	=6	=6	=6	=6	=6	=6	=6	=6	=6	=6	=6	=6	=6	=6
8r	.	8r	.	8r	.	.	.	.	.	32cc\LLL	no-	.	.	.
.	.	.	.	.	.	.	.	.	.	32b-\	.	.	.	.
.	.	.	.	.	.	.	.	.	.	32a\	.	.	.	.
.	.	.	.	.	.	.	.	.	.	32b-\JJJ	.	.	.	.
8C/L	.	8g/L	.	8b-\L	.	.	.	.	.	8b-\	-bis	.	.	.
8C/	.	8g/	.	8b-\	.	.	.	.	.	8r	.	.	.	.
!	!	!	!	!	!	!	!	!	!	!LO:LB:g=original	!	!	!	!
8C/J	.	8g/J	.	8b-\J	.	.	.	.	.	16b-\	mi-	.	.	.
.	.	.	.	.	.	.	.	.	.	16b-\	-se-	.	.	.
=7	=7	=7	=7	=7	=7	=7	=7	=7	=7	=7	=7	=7	=7	=7
8r	.	8r	.	8r	.	.	.	.	.	4bb-\	-re-	.	.	.
8C/L	.	8g/L	.	8b-\L	.	.	.	.	.	.	.	.	.	.
8C/	.	8g/	.	8b-\	.	.	.	.	.	32bb-\LLL	.	.	.	.
.	.	.	.	.	.	.	.	.	.	32aa\	.	.	.	.
.	.	.	.	.	.	.	.	.	.	32gg\	.	.	.	.
.	.	.	.	.	.	.	.	.	.	32ff\JJJ	.	.	.	.
8C/J	.	8g/J	.	8b-\J	.	.	.	.	.	32ee\LLL	-re	.	.	.
.	.	.	.	.	.	.	.	.	.	32dd\	.	.	.	.
.	.	.	.	.	.	.	.	.	.	32cc\	.	.	.	.
.	.	.	.	.	.	.	.	.	.	32b-\JJJ	.	.	.	.
=8	=8	=8	=8	=8	=8	=8	=8	=8	=8	=8	=8	=8	=8	=8
8r	.	8r	.	8r	.	.	.	.	.	16b-\LL	no-	.	.	.
.	.	.	.	.	.	.	.	.	.	16a\	.	.	.	.
!LO:TX:t=P:problem=mixed beam	!	!	!	!	!	!	!	!	!	!	!	!	!	!
8F\L	.	8a/L	.	8cc\L	.	.	.	.	.	16dd\	.	.	.	.
.	.	.	.	.	.	.	.	.	.	16cc\JJ	.	.	.	.
8C\	.	8a/	.	8cc\	.	.	.	.	.	8cc\	-bis	.	.	.
8FF/J	.	8a/J	.	8cc\J	.	.	.	.	.	8r	.	.	.	.
!LO:LB:g=original	!	!	!	!LO:LB:g=original	!	!	!	!	!	!	!	!	!	!
=9	=9	=9	=9	=9	=9	=9	=9	=9	=9	=9	=9	=9	=9	=9
*	*	*	*	*	*	*	*	*	*	*	*	*2\right	*2\right	*2\right
!	!	!	!	!	!	!LO:N:vis=00	!	!LO:N:vis=00	!	!	!	!	!	!
8G\L	.	16bn\LL	.	16dd\LL	.	0r	.	0r	.	16bn\LL	no-	2g\	2g\	2ddd\
.	.	16b\JJ	.	16dd\JJ	.	.	.	.	.	16dd\JJ	.	.	.	.
8d\	.	16r	.	16r	.	.	.	.	.	32r	.	.	.	.
.	.	.	.	.	.	.	.	.	.	32dd\LLL	.	.	.	.
.	.	16b\	.	16dd\	.	.	.	.	.	32cc\	.	.	.	.
.	.	.	.	.	.	.	.	.	.	32dd\JJJ	.	.	.	.
!	!	!LO:LB:g=original	!	!	!	!	!	!	!	!	!	!	!	!
8Bn\	.	16r	.	16r	.	.	.	.	.	32ee\LLL	.	.	.	.
.	.	.	.	.	.	.	.	.	.	32dd\	.	.	.	.
.	.	16b\	.	16dd\	.	.	.	.	.	32cc\	.	.	.	.
.	.	.	.	.	.	.	.	.	.	32dd\JJJ	.	.	.	.
8G\J	.	16r	.	16r	.	.	.	.	.	32ff\LLL	.	.	.	.
.	.	.	.	.	.	.	.	.	.	32dd\	.	.	.	.
.	.	16b\	.	16dd\	.	.	.	.	.	32cc\	.	.	.	.
.	.	.	.	.	.	.	.	.	.	32dd\JJJ	.	.	.	.
=10	=10	=10	=10	=10	=10	=10	=10	=10	=10	=10	=10	=10	=10	=10
8c\L	.	16cc\LL	.	16ee\LL	.	.	.	.	.	16cc\LL	.	2g\	2g\	2eee\
.	.	16cc\JJ	.	16ee\JJ	.	.	.	.	.	16ee\JJ	.	.	.	.
8e\	.	16r	.	16r	.	.	.	.	.	32r	.	.	.	.
.	.	.	.	.	.	.	.	.	.	32ee\LLL	.	.	.	.
.	.	16cc\	.	16ee\	.	.	.	.	.	32dd\	.	.	.	.
.	.	.	.	.	.	.	.	.	.	32ee\JJJ	.	.	.	.
8c\	.	16r	.	16r	.	.	.	.	.	32gg\LLL	.	.	.	.
.	.	.	.	.	.	.	.	.	.	32ee\	.	.	.	.
.	.	16cc\	.	16ee\	.	.	.	.	.	32dd\	.	.	.	.
.	.	.	.	.	.	.	.	.	.	32ee\JJJ	.	.	.	.
8G\J	.	16r	.	16r	.	.	.	.	.	32ff\LLL	.	.	.	.
.	.	.	.	.	.	.	.	.	.	32ee\	.	.	.	.
.	.	16cc\	.	16ee\	.	.	.	.	.	32dd\	.	.	.	.
.	.	.	.	.	.	.	.	.	.	32ee\JJJ	.	.	.	.
!	!	!	!	!	!	!	!	!	!	!LO:LB:g=original	!	!	!	!
=11	=11	=11	=11	=11	=11	=11	=11	=11	=11	=11	=11	=11	=11	=11
8G\L	.	16bn\LL	.	16dd\LL	.	.	.	.	.	16dd\LL	.	2g\	2g\	2ddd\
.	.	16b\JJ	.	16dd\JJ	.	.	.	.	.	16ff\JJ	.	.	.	.
!LO:TX:a:t=SIC:s=8d	!	!	!	!	!	!	!	!	!	!	!	!	!	!
8e\	.	16r	.	16r	.	.	.	.	.	32r	.	.	.	.
.	.	.	.	.	.	.	.	.	.	32ff\LLL	.	.	.	.
.	.	16b\	.	16dd\	.	.	.	.	.	32ee\	.	.	.	.
.	.	.	.	.	.	.	.	.	.	32ff\JJJ	.	.	.	.
8Bn\	.	16r	.	16r	.	.	.	.	.	32gg\LLL	.	.	.	.
.	.	.	.	.	.	.	.	.	.	32ff\	.	.	.	.
.	.	16b\	.	16dd\	.	.	.	.	.	32ee\	.	.	.	.
.	.	.	.	.	.	.	.	.	.	32ff\JJJ	.	.	.	.
8G\J	.	16r	.	16r	.	.	.	.	.	32aa\LLL	.	.	.	.
.	.	.	.	.	.	.	.	.	.	32ff\	.	.	.	.
.	.	16b\	.	16dd\	.	.	.	.	.	32ee\	.	.	.	.
.	.	.	.	.	.	.	.	.	.	32ff\JJJ	.	.	.	.
=12	=12	=12	=12	=12	=12	=12	=12	=12	=12	=12	=12	=12	=12	=12
*	*	*Xtuplet	*	*Xtuplet	*	*	*	*	*	*Xtuplet	*	*	*	*
!	!	!LO:TX:a:t=problem:klamra łukowa, kropka zamiast numeru	!	!LO:TX:a:t=P:problem=klamra łukowa, kropka zamiast cyfry	!	!	!	!	!	!LO:TX:a:t=problem:brak klamry, brak numeru:global	!	!	!	!
8c\L	.	24cc\LL	.	24ee\LL	.	.	.	.	.	24ee\LL	.	2g\	2g\	4eee\
.	.	24dd\	.	24ff\	.	.	.	.	.	24ff\	.	.	.	.
.	.	24ee\JJ	.	24gg\JJ	.	.	.	.	.	24gg\JJ	.	.	.	.
!	!	!LO:TX:a:t=problem:brak klamry, brak numeru:global	!	!LO:TX:a:t=P:problem=klamra łukowa, kropka zamiast cyfry	!	!	!	!	!	!	!	!	!	!
8e\	.	24ee\LL	.	24gg\LL	.	.	.	.	.	24gg\LL	.	.	.	.
.	.	24ee\	.	24gg\	.	.	.	.	.	24gg\	.	.	.	.
.	.	24ee\JJ	.	24gg\JJ	.	.	.	.	.	24gg\JJ	.	.	.	.
!	!	!LO:TX:a:t=problem:klamra łukowa, kropka zamiast cyfry	!	!LO:TX:a:t=P:problem=klamra łukowa, kropka zamiast cyfry	!	!	!	!	!	!	!	!	!	!
8c\	.	24ee\LL	.	24gg\LL	.	.	.	.	.	24gg\LL	.	.	.	4r
.	.	24dd\	.	24ff\	.	.	.	.	.	24ff\	.	.	.	.
.	.	24cc\JJ	.	24ee\JJ	.	.	.	.	.	24ee\JJ	.	.	.	.
!	!	!LO:TX:a:t=problem:klamra łukowa, kropka zamiast cyfry	!	!LO:TX:a:t=P:problem=klamra łukowa, kropka zamiast cyfry	!	!	!	!	!	!	!	!	!	!
8G\J	.	24aa\LL	.	24ccc\LL	.	.	.	.	.	24ccc\LL	.	.	.	.
!	!	!	!	!	!	!	!	!	!	!LO:TX:a:t=SIC:s=16bbn	!	!	!	!
.	.	24gg\	.	24bbn\	.	.	.	.	.	24bb-\	.	.	.	.
.	.	24ff\JJ	.	24aa\JJ	.	.	.	.	.	24aa\JJ	.	.	.	.
=13	=13	=13	=13	=13	=13	=13	=13	=13	=13	=13	=13	=13	=13	=13
!LO:TX:t=P:problem=mixed beam	!	!	!	!	!	!	!	!	!	!	!	!LO:TX:a:t=20.	!LO:TX:a:t=20.	!LO:TX:a:t=3.
!	!	!	!	!	!	!LO:N:vis=00	!	!LO:N:vis=00	!	!	!	!LO:N:vis=00	!LO:N:vis=00	!LO:N:vis=0
8c\L	.	8ee\L	.	8gg\L	.	0r	.	0r	.	8gg\L	.	0r	0r	1r
8C/J	.	16cc\L	.	16ee\L	.	.	.	.	.	16ee\L	.	.	.	.
.	.	16ee\JJ	.	16gg\JJ	.	.	.	.	.	16gg\JJ	.	.	.	.
4r	.	16ee\LL	.	16gg\LL	.	.	.	.	.	16gg\LL	.	.	.	.
.	.	16dd\	.	16ff\	.	.	.	.	.	16ff\	.	.	.	.
.	.	16cc\	.	16ee\	.	.	.	.	.	16ee\	.	.	.	.
.	.	16bn\JJ	.	16dd\JJ	.	.	.	.	.	16dd\JJ	.	.	.	.
=14	=14	=14	=14	=14	=14	=14	=14	=14	=14	=14	=14	=14	=14	=14
!	!	!LO:TX:t=P:problem=mixed beam	!	!	!	!	!	!	!	!	!	!	!	!
8F\L	.	8cc\L	.	8ee\L	.	.	.	.	.	8ee\L	.	.	.	.
8A\	.	16dd\L	.	16ff\L	.	.	.	.	.	16ff\L	.	.	.	.
.	.	16f/JJ	.	16dd\JJ	.	.	.	.	.	16dd\JJ	.	.	.	.
!	!	!	!	!LO:LB:g=original	!	!	!	!	!	!	!	!	!	!
8F\	.	16f/LL	.	16dd\LL	.	.	.	.	.	16dd\LL	.	.	.	.
.	.	16e/	.	16cc\	.	.	.	.	.	16cc\	.	.	.	.
8G\J	.	16e/	.	16cc\	.	.	.	.	.	16cc\	.	.	.	.
.	.	16d/JJ	.	16bn\JJ	.	.	.	.	.	16bn\JJ	.	.	.	.
!	!	!LO:LB:g=original	!	!	!	!	!	!	!	!LO:LB:g=original	!	!	!	!
=15	=15	=15	=15	=15	=15	=15	=15	=15	=15	=15	=15	=15	=15	=15
!	!	!	!	!LO:TX:a:t=SIC:s=16bn	!	!	!	!	!	!	!	!	!	!
8C/L	.	8d/L	.	16b-\LL	.	.	.	.	.	8bn\L	.	.	.	2r
.	.	.	.	16cc\J	.	.	.	.	.	.	.	.	.	.
8GG/	.	8e/	.	8g\J	.	.	.	.	.	8cc\J	-bis	.	.	.
!	!	!	!	!LO:TX:a:t=SIC:s=8c	!	!	!	!	!	!	!	!	!	!
8C/J	.	8e/J	.	8B-/	.	.	.	.	.	4r	.	.	.	.
8r	.	8r	.	8r	.	.	.	.	.	.	.	.	.	.
=16	=16	=16	=16	=16	=16	=16	=16	=16	=16	=16	=16	=16	=16	=16
*	*	*	*	*	*	*	*	*	*	*	*	*	*	*Xtuplet
!LO:TX:t=P:problem=mixed beam	!	!	!	!LO:TX:a:t=problem:brak klamry, brak numeru:global	!	!	!	!	!	!LO:N:vis=00	!	!	!	!LO:TX:a:t=problem:brak klamry, brak numeru:global
8c\L	.	2r	.	24c/LL	.	.	.	.	.	0r	.	.	.	24cc\LL
.	.	.	.	24G/	.	.	.	.	.	.	.	.	.	24g\
.	.	.	.	24c/JJ	.	.	.	.	.	.	.	.	.	24cc\JJ
8C/J	.	.	.	24c/LL	.	.	.	.	.	.	.	.	.	24cc\LL
.	.	.	.	24c/	.	.	.	.	.	.	.	.	.	24cc\
.	.	.	.	24c/JJ	.	.	.	.	.	.	.	.	.	24cc\JJ
!	!	!	!	!LO:TX:a:t=P:problem=klamra łukowa, kropka zamiast cyfry	!	!	!	!	!	!	!	!	!	!
4r	.	.	.	24c/LL	.	.	.	.	.	.	.	.	.	24cc\LL
.	.	.	.	24d/	.	.	.	.	.	.	.	.	.	24dd\
.	.	.	.	24e/JJ	.	.	.	.	.	.	.	.	.	24ee\JJ
!	!	!	!	!LO:TX:a:t=P:problem=brak oznaczenia trioli	!	!	!	!	!	!	!	!	!	!
.	.	.	.	24d/LL	.	.	.	.	.	.	.	.	.	24dd\LL
.	.	.	.	24e/	.	.	.	.	.	.	.	.	.	24ee\
.	.	.	.	24f/JJ	.	.	.	.	.	.	.	.	.	24ff\JJ
!	!	!	!	!	!	!	!	!	!	!	!	!	!	!LO:LB:g=original
=17	=17	=17	=17	=17	=17	=17	=17	=17	=17	=17	=17	=17	=17	=17
!LO:TX:t=P:problem=mixed beam	!	!	!	!LO:TX:a:t=P:problem=brak oznaczenia trioli	!	!LO:N:vis=00	!	!LO:N:vis=00	!	!	!	!LO:N:vis=00	!LO:N:vis=00	!
8c\L	.	24c/LL	.	24e/LL	.	0r	.	0r	.	.	.	0r	0r	24ee\LL
.	.	24G/	.	24c/	.	.	.	.	.	.	.	.	.	24cc\
.	.	24c/JJ	.	24e/JJ	.	.	.	.	.	.	.	.	.	24ee\JJ
!	!	!	!	!LO:TX:a:t=P:problem=brak oznaczenia trioli	!	!	!	!	!	!	!	!	!	!
8C/J	.	24c/LL	.	24e/LL	.	.	.	.	.	.	.	.	.	24ee\LL
.	.	24c/	.	24e/	.	.	.	.	.	.	.	.	.	24ee\
.	.	24c/JJ	.	24e/JJ	.	.	.	.	.	.	.	.	.	24ee\JJ
!	!	!LO:TX:a:t=problem:klamra łukowa, kropka zamiast numeru	!	!LO:TX:a:t=P:problem=brak oznaczenia trioli	!	!	!	!	!	!	!	!	!	!
4r	.	24c/LL	.	24e/LL	.	.	.	.	.	.	.	.	.	24ee\LL
.	.	24d/	.	24f/	.	.	.	.	.	.	.	.	.	24ff\
.	.	24e/JJ	.	24g/JJ	.	.	.	.	.	.	.	.	.	24gg\JJ
!	!	!LO:TX:a:t=problem:klamra łukowa, kropka zamiast numeru	!	!LO:TX:a:t=P:problem=brak oznaczenia trioli	!	!	!	!	!	!	!	!	!	!
.	.	24d/LL	.	24f/LL	.	.	.	.	.	.	.	.	.	24ff\LL
.	.	24e/	.	24g/	.	.	.	.	.	.	.	.	.	24gg\
.	.	24f/JJ	.	24a/JJ	.	.	.	.	.	.	.	.	.	24aa\JJ
=18	=18	=18	=18	=18	=18	=18	=18	=18	=18	=18	=18	=18	=18	=18
!	!	!	!	!LO:TX:a:t=P:problem=brak oznaczenia trioli	!	!	!	!	!	!	!	!	!	!
8C/	.	24e/LL	.	24g/LL	.	.	.	.	.	.	.	.	.	24gg\LL
.	.	24c/	.	24e/	.	.	.	.	.	.	.	.	.	24ee\
.	.	24e/JJ	.	24g/JJ	.	.	.	.	.	.	.	.	.	24gg\JJ
!	!	!	!	!LO:TX:a:t=P:problem=brak oznaczenia trioli	!	!	!	!	!	!	!	!	!	!
8r	.	24e/LL	.	24g/LL	.	.	.	.	.	.	.	.	.	24gg\LL
.	.	24e/	.	24g/	.	.	.	.	.	.	.	.	.	24gg\
.	.	24e/JJ	.	24g/JJ	.	.	.	.	.	.	.	.	.	24gg\JJ
!	!	!	!	!LO:TX:a:t=P:problem=brak oznaczenia trioli	!	!	!	!	!	!	!	!	!	!
8C/	.	24e/LL	.	24g/LL	.	.	.	.	.	.	.	.	.	24gg\LL
.	.	24f/	.	24a/	.	.	.	.	.	.	.	.	.	24aa\
.	.	24g/JJ	.	24bn/JJ	.	.	.	.	.	.	.	.	.	24bbn\JJ
!	!	!	!	!LO:TX:a:t=P:global:problem=brak oznaczenia trioli	!	!	!	!	!	!	!	!	!	!
8r	.	24a/LL	.	24cc/LL	.	.	.	.	.	.	.	.	.	24ccc\LL
.	.	24g/	.	24b/	.	.	.	.	.	.	.	.	.	24bb\
.	.	24f/JJ	.	24a/JJ	.	.	.	.	.	.	.	.	.	24aa\JJ
!LO:LB:g=original	!	!	!	!	!	!	!	!	!	!	!	!	!	!
=19	=19	=19	=19	=19	=19	=19	=19	=19	=19	=19	=19	=19	=19	=19
8C/	.	24e/LL	.	24g/LL	.	.	.	.	.	.	.	.	.	24gg\LL
.	.	24c/	.	24e/	.	.	.	.	.	.	.	.	.	24ee\
.	.	24e/JJ	.	24g/JJ	.	.	.	.	.	.	.	.	.	24gg\JJ
8r	.	24e/LL	.	24g/LL	.	.	.	.	.	.	.	.	.	24gg\LL
.	.	24e/	.	24g/	.	.	.	.	.	.	.	.	.	24gg\
.	.	24e/JJ	.	24g/JJ	.	.	.	.	.	.	.	.	.	24gg\JJ
8C/	.	24e/LL	.	24g/LL	.	.	.	.	.	.	.	.	.	24gg\LL
.	.	24f/	.	24a/	.	.	.	.	.	.	.	.	.	24aa\
.	.	24g/JJ	.	24bn/JJ	.	.	.	.	.	.	.	.	.	24bbn\JJ
8r	.	24a/LL	.	24cc/LL	.	.	.	.	.	.	.	.	.	24ccc\LL
.	.	24g/	.	24b/	.	.	.	.	.	.	.	.	.	24bb\
.	.	24f/JJ	.	24a/JJ	.	.	.	.	.	.	.	.	.	24aa\JJ
!	!	!	!	!LO:PB:g=original	!	!	!	!	!	!	!	!	!	!
=20	=20	=20	=20	=20	=20	=20	=20	=20	=20	=20	=20	=20	=20	=20
!	!	!	!	!	!	!	!	!	!	!LO:N:vis=00	!	!	!	!
8C/	.	24e/LL	.	24g/LL	.	.	.	.	.	0r	.	.	.	24gg\LL
.	.	24a/	.	24cc/	.	.	.	.	.	.	.	.	.	24ccc\
.	.	24g/JJ	.	24bn/JJ	.	.	.	.	.	.	.	.	.	24bbn\JJ
8r	.	24f/LL	.	24a/LL	.	.	.	.	.	.	.	.	.	24aa\LL
.	.	24e/	.	24g/	.	.	.	.	.	.	.	.	.	24gg\
.	.	24d/JJ	.	24f/JJ	.	.	.	.	.	.	.	.	.	24ff\JJ
!	!	!LO:LB:g=original	!	!	!	!	!	!	!	!	!	!	!	!LO:LB:g=original
8GG/	.	8c/L	.	8e/L	.	.	.	.	.	.	.	.	.	8ee\L
8r	.	8Bn/J	.	8d/J	.	.	.	.	.	.	.	.	.	8dd\J
=21	=21	=21	=21	=21	=21	=21	=21	=21	=21	=21	=21	=21	=21	=21
!LO:TX:t=P:problem=mixed beam	!	!	!	!	!	!	!	!	!	!	!	!LO:N:vis=00	!LO:N:vis=00	!
8C/L	.	8c/L	.	8c/L	.	2r	.	2r	.	.	.	0r	0r	4dd\
8G\	.	8G/	.	8G/	.	.	.	.	.	.	.	.	.	.
8C/J	.	8c/J	.	8c/J	.	.	.	.	.	.	.	.	.	8cc\
8r	.	8r	.	8r	.	.	.	.	.	.	.	.	.	8r
=22	=22	=22	=22	=22	=22	=22	=22	=22	=22	=22	=22	=22	=22	=22
!	!	!	!	!	!	!	!	!	!	!	!	!	!	!LO:TX:a:t=10.
!	!	!	!	!	!	!	!	!	!	!	!	!	!	!LO:N:vis=00
8r	.	8r	.	8r	.	4.G\	A-	4.G/	A-	.	.	.	.	0r
8c\L	.	8ee\L	.	8gg\L	.	.	.	.	.	.	.	.	.	.
8c\	.	8ee\	.	8gg\	.	.	.	.	.	.	.	.	.	.
8c\J	.	8ee\J	.	8gg\J	.	8c\	-gnus	8c\	-gnus	.	.	.	.	.
=23	=23	=23	=23	=23	=23	=23	=23	=23	=23	=23	=23	=23	=23	=23
8r	.	8r	.	8r	.	16c\LL	De-	16c\LL	De-	.	.	.	.	.
.	.	.	.	.	.	16Bn\JJ	.	16Bn\JJ	.	.	.	.	.	.
8G\L	.	8ee\L	.	8gg\L	.	8B\	-i	8B\	-i	.	.	.	.	.
8G\	.	8ee\	.	8gg\	.	8r	.	8r	.	.	.	.	.	.
8G\J	.	8ee\J	.	8gg\J	.	8d\	qui	8d\	qui	.	.	.	.	.
=24	=24	=24	=24	=24	=24	=24	=24	=24	=24	=24	=24	=24	=24	=24
!	!	!	!	!	!	!	!	!	!	!LO:N:vis=00	!	!	!	!
8r	.	8r	.	8r	.	8d\	tol-	8d\	tol-	0r	.	.	.	.
8G\L	.	8ff\L	.	8aa\L	.	16F\	-lis	16F/	-lis	.	.	.	.	.
.	.	.	.	.	.	16A\	pec-	16A/	pec-	.	.	.	.	.
8G\	.	8ff\	.	8aa\	.	8G\	-ca-	8G/	-ca-	.	.	.	.	.
8G\J	.	8ff\J	.	8aa\J	.	8F\	-ta	8F/	-ta	.	.	.	.	.
=25	=25	=25	=25	=25	=25	=25	=25	=25	=25	=25	=25	=25	=25	=25
!	!	!	!	!	!	!	!	!	!	!	!	!LO:N:vis=00	!LO:N:vis=00	!
8r	.	8r	.	8r	.	32G\LLL	mun-	32G/LLL	mun-	.	.	0r	0r	.
.	.	.	.	.	.	32F\	.	32F/	.	.	.	.	.	.
.	.	.	.	.	.	32E\	.	32E/	.	.	.	.	.	.
.	.	.	.	.	.	32F\JJJ	.	32F/JJJ	.	.	.	.	.	.
!LO:TX:t=P:problem=mixed beam	!	!	!	!	!	!	!	!	!	!	!	!	!	!
8c\L	.	8ee\L	.	8gg\L	.	8E\	-di	8E/	-di	.	.	.	.	.
8C/	.	8ee\	.	8gg\	.	8r	.	8r	.	.	.	.	.	.
8C/J	.	8ee\J	.	8gg\J	.	16G\	mi-	16G/	mi-	.	.	.	.	.
.	.	.	.	.	.	16G\	-se-	16G/	-se-	.	.	.	.	.
!	!	!	!	!	!	!LO:LB:g=original	!	!	!	!	!	!	!	!
=26	=26	=26	=26	=26	=26	=26	=26	=26	=26	=26	=26	=26	=26	=26
!	!	!	!	!	!	!	!	!	!	!	!	!	!	!LO:N:vis=00
8r	.	8r	.	8r	.	8.G\L	-re-	8.G/L	-re-	.	.	.	.	0r
8C/L	.	8cc\L	.	8ee\L	.	.	.	.	.	.	.	.	.	.
.	.	.	.	.	.	16E\Jk	.	16E/Jk	.	.	.	.	.	.
8C/	.	8cc\	.	8ee\	.	16e\LL	-re	16e/LL	-re	.	.	.	.	.
.	.	.	.	.	.	16c\	.	16c/	.	.	.	.	.	.
8C/J	.	8cc\J	.	8ee\J	.	16G\	.	16G/	.	.	.	.	.	.
.	.	.	.	.	.	16E\JJ	.	16E/JJ	.	.	.	.	.	.
!	!	!	!	!	!	!	!	!LO:LB:g=original	!	!	!	!	!	!
=27	=27	=27	=27	=27	=27	=27	=27	=27	=27	=27	=27	=27	=27	=27
8r	.	8r	.	8r	.	32G\LLL	no-	32G/LLL	no-	.	.	.	.	.
.	.	.	.	.	.	32F\	.	32F/	.	.	.	.	.	.
.	.	.	.	.	.	32E\	.	32E/	.	.	.	.	.	.
.	.	.	.	.	.	32F\JJJ	.	32F/JJJ	.	.	.	.	.	.
8GG/L	.	8bn\L	.	8dd\L	.	8F\	-bis	8F/	-bis	.	.	.	.	.
8GG/	.	8b\	.	8dd\	.	8r	.	8r	.	.	.	.	.	.
8GG/J	.	8b\J	.	8dd\J	.	16F\	mi-	16F/	mi-	.	.	.	.	.
.	.	.	.	.	.	16F\	-se	16F/	-se	.	.	.	.	.
=28	=28	=28	=28	=28	=28	=28	=28	=28	=28	=28	=28	=28	=28	=28
!	!	!	!	!	!	!	!	!	!	!LO:N:vis=00	!	!	!	!
8r	.	8r	.	8r	.	4f\	re-	4f\	re-	0r	.	.	.	.
8GG/L	.	8dd\L	.	8ff\L	.	.	.	.	.	.	.	.	.	.
!	!	!	!	!	!	!LO:TX:a:t=problem: zła grupa rytmiczna. Por. canto t.7	!	!	!	!	!	!	!	!
!	!	!	!	!	!	!LO:N:vis=16	!	!	!	!	!	!	!	!
8GG/	.	8dd\	.	8ff\	.	32f\LLL	.	32f\LLL	.	.	.	.	.	.
!	!	!	!	!	!	!LO:N:vis=16	!	!	!	!	!	!	!	!
.	.	.	.	.	.	32e\	.	32e\	.	.	.	.	.	.
!	!	!	!	!	!	!LO:N:vis=16	!	!	!	!	!	!	!	!
.	.	.	.	.	.	32d\	.	32d\	.	.	.	.	.	.
!	!	!	!	!	!	!LO:N:vis=16	!	!	!	!	!	!	!	!
.	.	.	.	.	.	32c\JJJ	.	32c\JJJ	.	.	.	.	.	.
8GG/J	.	8dd\J	.	8ff\J	.	32Bn\LLL	-re	32Bn/LLL	-re	.	.	.	.	.
.	.	.	.	.	.	32A\	.	32A/	.	.	.	.	.	.
.	.	.	.	.	.	32G\	.	32G/	.	.	.	.	.	.
.	.	.	.	.	.	32F\JJJ	.	32F/JJJ	.	.	.	.	.	.
=29	=29	=29	=29	=29	=29	=29	=29	=29	=29	=29	=29	=29	=29	=29
!	!	!	!	!	!	!	!	!	!	!	!	!LO:N:vis=00	!LO:N:vis=00	!
!	!	!	!	!	!	!	!	!	!	!	!	!LO:TX:a:t=problem:w rękopisie pauza 00 ale są tylko trzy takty	!LO:TX:a:t=problem:w rękopisie pauza 00 ale są tylko trzy takty	!
8r	.	8cc\L	.	8cc\L	.	16F\LL	no-	16F/LL	no-	.	.	1.r	1.r	.
.	.	.	.	.	.	16E\	.	16E/	.	.	.	.	.	.
8C\L	.	8cc\	.	8ee\	.	16A\	.	16A/	.	.	.	.	.	.
.	.	.	.	.	.	16G\JJ	.	16G/JJ	.	.	.	.	.	.
8E\	.	8cc\	.	8ee\	.	8G\	-bis	8G/	-bis	.	.	.	.	.
8G\J	.	8cc\J	.	8ee\J	.	16G\	mi-	16G/	mi-	.	.	.	.	.
.	.	.	.	.	.	16G\	-se-	16G/	-se-	.	.	.	.	.
!LO:LB:g=original	!	!	!	!	!	!	!	!	!	!	!	!	!	!
=30	=30	=30	=30	=30	=30	=30	=30	=30	=30	=30	=30	=30	=30	=30
!	!	!	!	!	!	!	!	!	!	!	!	!	!	!LO:N:vis=0
8.c\L	.	8.cc\L	.	8.ccc\L	.	8.c\L	-re-	8.c\L	-re-	.	.	.	.	1r
16G\Jk	.	16g\Jk	.	16gg\Jk	.	16G\Jk	.	16G\Jk	.	.	.	.	.	.
16F\LL	.	16f/LL	.	16ff\LL	.	16F\LL	-re	16F/LL	-re	.	.	.	.	.
16E\	.	16e/	.	16ee\	.	16E\JJ	.	16E/JJ	.	.	.	.	.	.
16D\	.	16d/	.	16dd\	.	16D\LL	.	16D/LL	.	.	.	.	.	.
16C\JJ	.	16c/JJ	.	16cc\JJ	.	16C\JJ	.	16C/JJ	.	.	.	.	.	.
!	!	!	!	!	!	!LO:LB:g=original	!	!	!	!	!	!	!	!
=31	=31	=31	=31	=31	=31	=31	=31	=31	=31	=31	=31	=31	=31	=31
!LO:TX:t=P:problem=mixed beam	!	!	!	!LO:TX:t=P:problem=mixed beam	!	!	!	!	!	!	!	!	!	!
8G\L	.	8g/L	.	8gg\L	.	8G\	no-	8G/	no-	.	.	.	.	.
8GG/J	.	8G/J	.	8g/J	.	8GG/	-bis	8GG/	-bis	.	.	.	.	.
4r	.	4r	.	4r	.	4r	.	4r	.	.	.	.	.	.
!	!	!LO:LB:g=original	!	!LO:LB:g=original	!	!	!	!	!	!	!	!	!	!
=32	=32	=32	=32	=32	=32	=32	=32	=32	=32	=32	=32	=32	=32	=32
!	!	!	!	!	!	!	!	!	!	!LO:N:vis=00	!	!	!	!
8G\L	.	16dd\LL	.	16ff\LL	.	16Bn\LL	no-	16Bn\LL	no-	0r	.	2g\	2g\	2fff\
.	.	16dd\JJ	.	16ff\JJ	.	16d\JJ	.	16d\JJ	.	.	.	.	.	.
8d\	.	16r	.	16r	.	16r	.	16r	.	.	.	.	.	.
.	.	16dd\	.	16ff\	.	32f\LLL	.	32f\LLL	.	.	.	.	.	.
.	.	.	.	.	.	32e\JJJ	.	32e\JJJ	.	.	.	.	.	.
8Bn\	.	16r	.	16r	.	32d\LLL	.	32d\LLL	.	.	.	.	.	.
.	.	.	.	.	.	32c\	.	32c\	.	.	.	.	.	.
.	.	16dd\	.	16ff\	.	32B\	.	32B\	.	.	.	.	.	.
.	.	.	.	.	.	32A\JJJ	.	32A\JJJ	.	.	.	.	.	.
!	!	!	!	!	!	!	!	!LO:LB:g=original	!	!	!	!	!	!
8G\J	.	16r	.	16r	.	32G\LLL	.	32G/LLL	.	.	.	.	.	.
.	.	.	.	.	.	32F\	.	32F/	.	.	.	.	.	.
.	.	16dd\	.	16ff\	.	32E\	.	32E/	.	.	.	.	.	.
.	.	.	.	.	.	32D\JJJ	.	32D/JJJ	.	.	.	.	.	.
=33	=33	=33	=33	=33	=33	=33	=33	=33	=33	=33	=33	=33	=33	=33
8c\L	.	16ee\LL	.	16gg\LL	.	16C\LL	.	16C/LL	.	.	.	2g\	2g\	2eee\
.	.	16ee\JJ	.	16gg\JJ	.	32D\L	.	32D/L	.	.	.	.	.	.
.	.	.	.	.	.	32E\JJJ	.	32E/JJJ	.	.	.	.	.	.
8G\	.	16r	.	16r	.	32F\LLL	.	32F/LLL	.	.	.	.	.	.
.	.	.	.	.	.	32G\	.	32G/	.	.	.	.	.	.
.	.	16ee\	.	16gg\	.	32A\	.	32A/	.	.	.	.	.	.
.	.	.	.	.	.	32Bn\JJJ	.	32Bn/JJJ	.	.	.	.	.	.
8E\	.	16r	.	16r	.	32c\LLL	.	32c/LLL	.	.	.	.	.	.
.	.	.	.	.	.	32d\	.	32d/	.	.	.	.	.	.
.	.	16ee\	.	16gg\	.	32e\	.	32e/	.	.	.	.	.	.
.	.	.	.	.	.	32d\JJJ	.	32d/JJJ	.	.	.	.	.	.
8C\J	.	16r	.	16r	.	8c\	-bis	8c/	-bis	.	.	.	.	.
.	.	16ee\	.	16gg\	.	.	.	.	.	.	.	.	.	.
=34	=34	=34	=34	=34	=34	=34	=34	=34	=34	=34	=34	=34	=34	=34
8G\L	.	16dd\LL	.	16ff\LL	.	16Bn\LL	{no}-	16Bn/LL	{no}-	.	.	2g\	2g\	2fff\
.	.	16dd\JJ	.	16ff\JJ	.	16d\JJ	.	16d/JJ	.	.	.	.	.	.
8d\	.	16r	.	16r	.	16r	.	16r	.	.	.	.	.	.
.	.	16dd\	.	16ff\	.	32f\LLL	.	32f\LLL	.	.	.	.	.	.
.	.	.	.	.	.	32e\JJJ	.	32e\JJJ	.	.	.	.	.	.
8Bn\	.	16r	.	16r	.	32d\LLL	.	32d/LLL	.	.	.	.	.	.
.	.	.	.	.	.	32c\	.	32c/	.	.	.	.	.	.
.	.	16dd\	.	16ff\	.	32B\	.	32B/	.	.	.	.	.	.
.	.	.	.	.	.	32A\JJJ	.	32A/JJJ	.	.	.	.	.	.
8G\J	.	16r	.	16r	.	32G\LLL	.	32G/LLL	.	.	.	.	.	.
.	.	.	.	.	.	32F\	.	32F/	.	.	.	.	.	.
.	.	16dd\	.	16ff\	.	32E\	.	32E/	.	.	.	.	.	.
.	.	.	.	.	.	32D\JJJ	.	32D/JJJ	.	.	.	.	.	.
!	!	!	!	!	!	!LO:LB:g=original	!	!	!	!	!	!	!	!
=35	=35	=35	=35	=35	=35	=35	=35	=35	=35	=35	=35	=35	=35	=35
8c\L	.	16ee\LL	.	16gg\LL	.	16C\LL	.	16C/LL	.	.	.	2g\	2g\	2eee\
.	.	16ee\JJ	.	16gg\JJ	.	32D\L	.	32D/L	.	.	.	.	.	.
.	.	.	.	.	.	32E\JJJ	.	32E/JJJ	.	.	.	.	.	.
8G\	.	16r	.	16r	.	32F\LLL	.	32F/LLL	.	.	.	.	.	.
.	.	.	.	.	.	32G\	.	32G/	.	.	.	.	.	.
.	.	16ee\	.	16gg\	.	32A\	.	32A/	.	.	.	.	.	.
.	.	.	.	.	.	32Bn\JJJ	.	32Bn/JJJ	.	.	.	.	.	.
8E\	.	16r	.	16r	.	32c\LLL	.	32c/LLL	.	.	.	.	.	.
.	.	.	.	.	.	32d\	.	32d/	.	.	.	.	.	.
.	.	16ee\	.	16gg\	.	32e\	.	32e/	.	.	.	.	.	.
.	.	.	.	.	.	32d\JJJ	.	32d/JJJ	.	.	.	.	.	.
8C\J	.	16r	.	16r	.	8c\	-bis	8c/	-bis	.	.	.	.	.
.	.	16ee\	.	16gg\	.	.	.	.	.	.	.	.	.	.
=36	=36	=36	=36	=36	=36	=36	=36	=36	=36	=36	=36	=36	=36	=36
!	!	!	!	!LO:TX:a:t=problem:repetycja tt.35	!	!	!	!	!	!LO:N:vis=00	!	!	!	!
8E\L	.	16ee\LL	.	16gg\LLyy	.	16G\LL	no-	16G/LL	no-	0r	.	2c/	2g\	2eee\
.	.	16ee\JJ	.	16gg\JJyy	.	16B-X\JJ	.	16B-X/JJ	.	.	.	.	.	.
8G\	.	16r	.	16ryy	.	16r	.	16r	.	.	.	.	.	.
.	.	16ee\	.	16gg\yy	.	32G\LLL	.	32G/LLL	.	.	.	.	.	.
.	.	.	.	.	.	32A\JJJ	.	32A/JJJ	.	.	.	.	.	.
8E\	.	16r	.	16ryy	.	32B-\LLL	.	32B-/LLL	.	.	.	.	.	.
.	.	.	.	.	.	32A\	.	32A/	.	.	.	.	.	.
.	.	16ee\	.	16gg\yy	.	32G\	.	32G/	.	.	.	.	.	.
.	.	.	.	.	.	32F\JJJ	.	32F/JJJ	.	.	.	.	.	.
8C\J	.	16r	.	16ryy	.	32E/LLL	.	32E/LLL	.	.	.	.	.	.
.	.	.	.	.	.	32D/	.	32D/	.	.	.	.	.	.
.	.	16ee\	.	16gg\yy	.	32C/	.	32C/	.	.	.	.	.	.
.	.	.	.	.	.	32BB-/JJJ	.	32BB-/JJJ	.	.	.	.	.	.
!	!	!	!	!	!	!	!	!LO:PB:g=original	!	!	!	!	!	!
=37	=37	=37	=37	=37	=37	=37	=37	=37	=37	=37	=37	=37	=37	=37
8F\L	.	16ff\LL	.	16aa\LL	.	32AA/LLL	.	32AA/LLL	.	.	.	2f\	2a\	2fff\
.	.	.	.	.	.	32C/	.	32C/	.	.	.	.	.	.
.	.	16ff\JJ	.	16aa\JJ	.	32D/	.	32D/	.	.	.	.	.	.
.	.	.	.	.	.	32E/JJJ	.	32E/JJJ	.	.	.	.	.	.
8c\	.	16r	.	16r	.	32F\LLL	.	32F/LLL	.	.	.	.	.	.
.	.	.	.	.	.	32G\	.	32G/	.	.	.	.	.	.
.	.	16ff\	.	16aa\	.	32A\	.	32A/	.	.	.	.	.	.
.	.	.	.	.	.	32B-\JJJ	.	32B-/JJJ	.	.	.	.	.	.
8A\	.	16r	.	16r	.	32c\LLL	.	32c\LLL	.	.	.	.	.	.
.	.	.	.	.	.	32d\	.	32d\	.	.	.	.	.	.
.	.	16ff\	.	16aa\	.	32e\	.	32e\	.	.	.	.	.	.
.	.	.	.	.	.	32f\JJJ	.	32f\JJJ	.	.	.	.	.	.
8F\J	.	16r	.	16r	.	8c\	-bis	8c\	-bis	.	.	.	.	.
.	.	16ff\	.	16aa\	.	.	.	.	.	.	.	.	.	.
!	!	!LO:LB:g=original	!	!	!	!	!	!	!	!	!	!LO:LB:g=original	!	!
=38	=38	=38	=38	=38	=38	=38	=38	=38	=38	=38	=38	=38	=38	=38
!	!	!	!	!	!	!	!	!	!	!	!	!	!	!LO:TX:a:t=SIC:s=2ggg
!	!	!	!	!	!	!	!	!	!	!	!	!	!	!LO:TX:a:t=problem: korekta. nieczytelny dźwięk
8E\L	.	16ee\LL	.	16gg\LL	.	16G\LL	no-	16G/LL	no-	.	.	2c/	2g\	2ggg\yy
.	.	16ee\JJ	.	16gg\JJ	.	16B-\JJ	.	16B-/JJ	.	.	.	.	.	.
8G\	.	16r	.	16r	.	16r	.	16r	.	.	.	.	.	.
.	.	16ee\	.	16gg\	.	32G\LLL	.	32G/LLL	.	.	.	.	.	.
.	.	.	.	.	.	32A\JJJ	.	32A/JJJ	.	.	.	.	.	.
!	!	!	!	!LO:LB:g=original	!	!LO:LB:g=original	!	!	!	!	!	!	!	!
8E\	.	16r	.	16r	.	32B-\LLL	.	32B-/LLL	.	.	.	.	.	.
.	.	.	.	.	.	32A\	.	32A/	.	.	.	.	.	.
.	.	16ee\	.	16gg\	.	32G\	.	32G/	.	.	.	.	.	.
.	.	.	.	.	.	32F\JJJ	.	32F/JJJ	.	.	.	.	.	.
8C\J	.	16r	.	16r	.	32E/LLL	.	32E/LLL	.	.	.	.	.	.
.	.	.	.	.	.	32D/	.	32D/	.	.	.	.	.	.
.	.	16ee\	.	16gg\	.	32C/	.	32C/	.	.	.	.	.	.
.	.	.	.	.	.	32BB-/JJJ	.	32BB-/JJJ	.	.	.	.	.	.
=39	=39	=39	=39	=39	=39	=39	=39	=39	=39	=39	=39	=39	=39	=39
8F\L	.	16ff\LL	.	16aa\LL	.	32AA/LLL	.	32AA/LLL	.	.	.	2f\	2a\	2fff\
.	.	.	.	.	.	32C/	.	32C/	.	.	.	.	.	.
.	.	16ff\JJ	.	16aa\JJ	.	32D/	.	32D/	.	.	.	.	.	.
.	.	.	.	.	.	32E/JJJ	.	32E/JJJ	.	.	.	.	.	.
8c\	.	16r	.	16r	.	32F\LLL	.	32F/LLL	.	.	.	.	.	.
.	.	.	.	.	.	32G\	.	32G/	.	.	.	.	.	.
.	.	16ff\	.	16aa\	.	32A\	.	32A/	.	.	.	.	.	.
.	.	.	.	.	.	32B-\JJJ	.	32B-/JJJ	.	.	.	.	.	.
8A\	.	16r	.	16r	.	32c\LLL	.	32c\LLL	.	.	.	.	.	.
.	.	.	.	.	.	32d\	.	32d\	.	.	.	.	.	.
.	.	16ff\	.	16aa\	.	32e\	.	32e\	.	.	.	.	.	.
.	.	.	.	.	.	32f\JJJ	.	32f\JJJ	.	.	.	.	.	.
8F\J	.	16r	.	16r	.	8c\	-bis	8c\	-bis	.	.	.	.	.
.	.	16ff\	.	16aa\	.	.	.	.	.	.	.	.	.	.
!	!	!	!	!	!	!	!	!	!	!	!	!	!LO:LB:g=original	!
=40	=40	=40	=40	=40	=40	=40	=40	=40	=40	=40	=40	=40	=40	=40
!LO:TX:t=P:problem=mixed beam	!	!	!	!	!	!	!	!	!	!LO:N:vis=0	!	!	!	!
8B-\L	.	8cc\L	.	8gg\L	.	8B-\L	no-	8B-\L	no-	1r	.	4f\	4a\	4fff\
8G\	.	16dd\L	.	16bb-\L	.	16d\L	.	16d\L	.	.	.	.	.	.
.	.	16b-\JJ	.	16gg\JJ	.	16B-\JJ	.	16B-\JJ	.	.	.	.	.	.
!	!	!	!	!	!	!LO:TX:t=P:problem=mixed beam	!	!LO:TX:t=P:problem=mixed beam	!	!	!	!	!	!
8c\	.	8a/L	.	8ff\L	.	8c\L	.	8c\L	.	.	.	4c/	4g\	4eee\
8C/J	.	8g/J	.	8ee\J	.	8C/J	.	8C/J	.	.	.	.	.	.
!LO:LB:g=original	!	!	!	!	!	!	!	!	!	!	!	!	!	!
=41	=41	=41	=41	=41	=41	=41	=41	=41	=41	=41	=41	=41	=41	=41
!LO:TX:t=P:problem=mixed beam	!	!	!	!LO:TX:t=P:problem=mixed beam	!	!	!	!	!	!LO:TX:a:t=Tutti	!	!	!	!
8F\L	.	8f/L	.	8ff\L	.	8F\	-bis	8f\	-bis	.	.	8A/L	8f\L	8fff\L
8C\	.	8a/J	.	8cc\	.	8r	.	8r	.	.	.	8A/J	8f\J	8eee\J
8FF/J	.	8f/	.	8f/J	.	4r	.	4r	.	.	.	4A/	4f\	4fff\
!	!	!	!	!	!LO:DY:t=for	!	!	!	!	!	!	!	!	!
8r	.	8r	.	8r	f	.	.	.	.	.	.	.	.	.
=42	=42	=42	=42	=42	=42	=42	=42	=42	=42	=42	=42	=42	=42	=42
!	!	!	!	!	!	!	!	!LO:TX:a:t=problem: 10 taktów dopisanych na dole strony	!	!	!	!	!	!
!	!	!	!	!	!	!	!	!LO:TX:b:t=tro	!	!	!	!	!	!
!	!LO:DY:t=pfor	!	!LO:DY:t=p:	!	!	!	!	!LO:TX:a:t=Vi	!	!	!	!	!	!
8r	f	8r	p	4.cc\	.	4.A\	A-	4.A/	A-	4.cc\	A-	2f\	2a\	2fff\
*	*	*^	*	*	*	*	*	*	*	*	*	*	*	*
!LO:TX:t=P:problem=mixed beam	!	!	!	!	!	!	!	!	!	!	!	!	!	!	!
8F\L	.	8a/L	8c/L	.	.	.	.	.	.	.	.	.	.	.	.
8FF/	.	8a/	8c/	.	.	.	.	.	.	.	.	.	.	.	.
8F\J	.	8a/J	8c/J	.	8ff\	.	8F\	-gnus	8F/	-gnus	8ff\	-gnus	.	.	.
=43	=43	=43	=43	=43	=43	=43	=43	=43	=43	=43	=43	=43	=43	=43	=43
8r	.	8rg	8rcyy	.	16ff\LL	.	8c\	De-	8c\	De-	16ff\LL	De-	2c/	2g\	2eee\
.	.	.	.	.	16ee\J	.	.	.	.	.	16ee\JJ	.	.	.	.
8c\L	.	8b-/L	8g\L	.	8ee\J	.	8c\	-i	8c\	-i	8ee\	-i	.	.	.
8G\	.	8b-/	8g\	.	8r	.	8r	.	8r	.	8r	.	.	.	.
8C\J	.	8b-/J	8g\J	.	8gg\	.	8E\	qui	8E/	qui	8gg\	qui	.	.	.
*	*	*v	*v	*	*	*	*	*	*	*	*	*	*	*	*
=44	=44	=44	=44	=44	=44	=44	=44	=44	=44	=44	=44	=44	=44	=44
8r	.	8r	.	8gg\L	.	8C\	tol-	8C/	tol-	8gg\	tol-	2c/	2g\	2eee\
*	*	*^	*	*	*	*	*	*	*	*	*	*	*	*
8C\L	.	8b-/L	8g\L	.	16b-\L	.	16E\	-lis	16E/	-lis	16b-\	-lis	.	.	.
.	.	.	.	.	16dd\JJ	.	16G\	pec-	16G/	pec-	16dd\	pec-	.	.	.
8G\	.	8b-/	8f\	.	(16dd\LL	.	8c\	-ca-	8c\	-ca-	16dd\LL	-ca-	.	.	.
.	.	.	.	.	16cc\)	.	.	.	.	.	16cc\JJ	.	.	.	.
8C\J	.	8b-/J	8f\J	.	(16cc\	.	8C/	-ta	8C/	-ta	16cc\LL	-ta	.	.	.
.	.	.	.	.	16b-\JJ)	.	.	.	.	.	16b-\JJ	.	.	.	.
*	*	*v	*v	*	*	*	*	*	*	*	*	*	*	*	*
=45	=45	=45	=45	=45	=45	=45	=45	=45	=45	=45	=45	=45	=45	=45
!LO:TX:t=P:problem=mixed beam	!	!LO:TX:a:t=problem:repetycja tt.44	!	!	!	!	!	!	!	!	!	!	!	!
8F\L	.	8ryy	.	(32b-/LLL	.	8F\	mun-	8F/	mun-	32b-\LLL	mun-	2f\	2a\	2fff\
.	.	.	.	32a/	.	.	.	.	.	32a\	.	.	.	.
.	.	.	.	32g/	.	.	.	.	.	32g\	.	.	.	.
.	.	.	.	32f/JJ)	.	.	.	.	.	32f\JJJ	.	.	.	.
*	*	*^	*	*	*	*	*	*	*	*	*	*	*	*
!	!	!	!	!	!	!	!	!	!LO:TX:a:t=problem: chorągiewka w lewą stronę	!	!	!	!	!	!
8C\	.	8b-/Lyy	8g\Lyy	.	8f/J	.	8FF/	-di	8FF/	-di	8f\	-di	.	.	.
8FF/J	.	8b-/yy	8f\yy	.	4r	.	4r	.	4r	.	4r	.	.	.	.
8r	.	8b-/Jyy	8f\Jyy	.	.	.	.	.	.	.	.	.	.	.	.
!	!	!	!	!	!	!	!LO:LB:g=original	!	!	!	!	!	!	!	!LO:LB:g=original
=46	=46	=46	=46	=46	=46	=46	=46	=46	=46	=46	=46	=46	=46	=46	=46
!	!	!	!	!LO:DY:t=for	!	!	!	!	!	!	!	!	!	!	!
8C\L	.	16b-/KL	16g\KL	f	16gg\LL	.	4e\	Mi-	4e\	Mi-	4gg\	mi-	2g\	2b-\	2bb-\
.	.	8b-/	8g\	.	16bb-\JJ	.	.	.	.	.	.	.	.	.	.
8G\	.	.	.	.	32r	.	.	.	.	.	.	.	.	.	.
.	.	.	.	.	32bb-\LLL	.	.	.	.	.	.	.	.	.	.
.	.	8b-/	8g\	.	32aa\	.	.	.	.	.	.	.	.	.	.
.	.	.	.	.	32bb-\JJJ	.	.	.	.	.	.	.	.	.	.
!	!	!	!	!	!LO:LB:g=original	!	!	!	!	!	!	!	!	!	!
8E\	.	.	.	.	(32ccc\LLL	.	4c\	-se-	4c\	-se-	4gg\	-se-	.	.	.
.	.	.	.	.	32bb-\	.	.	.	.	.	.	.	.	.	.
.	.	8b-/	8g\	.	32aa\	.	.	.	.	.	.	.	.	.	.
.	.	.	.	.	32bb-\JJJ)	.	.	.	.	.	.	.	.	.	.
8C\J	.	.	.	.	(32ddd\LLL	.	.	.	.	.	.	.	.	.	.
.	.	.	.	.	32bb-\	.	.	.	.	.	.	.	.	.	.
.	.	16b-/Jk	16g\Jk	.	32aa\	.	.	.	.	.	.	.	.	.	.
.	.	.	.	.	32bb-\JJJ)	.	.	.	.	.	.	.	.	.	.
!	!	!	!	!	!	!	!	!	!	!	!LO:LB:g=original	!	!	!	!
=47	=47	=47	=47	=47	=47	=47	=47	=47	=47	=47	=47	=47	=47	=47	=47
8F\L	.	16a/KL	16f\KL	.	16aa\LL	.	4f\	-re-	4f\	-re-	4ff\	-re-	2f\	2a\	2ccc\
.	.	8a/	8f\	.	16ccc\JJ	.	.	.	.	.	.	.	.	.	.
8C\	.	.	.	.	32r	.	.	.	.	.	.	.	.	.	.
.	.	.	.	.	32ccc\LLL	.	.	.	.	.	.	.	.	.	.
.	.	8a/	8f\	.	32bbn\	.	.	.	.	.	.	.	.	.	.
.	.	.	.	.	32ccc\JJJ	.	.	.	.	.	.	.	.	.	.
8AA\	.	.	.	.	32ddd\LLL	.	4F\	-re	4F/	-re	4ff\	-re	.	.	.
.	.	.	.	.	32ccc\	.	.	.	.	.	.	.	.	.	.
.	.	8a/	8f\	.	32bb-X\	.	.	.	.	.	.	.	.	.	.
.	.	.	.	.	32aa\JJJ	.	.	.	.	.	.	.	.	.	.
8FF\J	.	.	.	.	32gg\LLL	.	.	.	.	.	.	.	.	.	.
.	.	.	.	.	32ff\	.	.	.	.	.	.	.	.	.	.
.	.	16a/Jk	16f\Jk	.	32ee\	.	.	.	.	.	.	.	.	.	.
.	.	.	.	.	32dd\JJJ	.	.	.	.	.	.	.	.	.	.
=48	=48	=48	=48	=48	=48	=48	=48	=48	=48	=48	=48	=48	=48	=48	=48
!	!	!LO:TX:a:t=problem:repetycja tt.46-47	!	!	!	!	!	!	!	!	!	!	!	!	!
8C\L	.	16b-/KLyy	16g\KLyy	.	16gg'\LL	.	4e\	Mi-	4e\	Mi-	4gg\	mi-	2g\	2b-\	2bb-\
.	.	8b-/yy	8g\yy	.	16bb-'\JJ	.	.	.	.	.	.	.	.	.	.
8G\	.	.	.	.	32r	.	.	.	.	.	.	.	.	.	.
.	.	.	.	.	(32bb-\LLL	.	.	.	.	.	.	.	.	.	.
.	.	8b-/yy	8g\yy	.	32aa\	.	.	.	.	.	.	.	.	.	.
.	.	.	.	.	32bb-\JJJ)	.	.	.	.	.	.	.	.	.	.
8E\	.	.	.	.	(32ccc\LLL	.	4c\	-se-	4c\	-se-	4gg\	-se-	.	.	.
.	.	.	.	.	32bb-\	.	.	.	.	.	.	.	.	.	.
.	.	8b-/yy	8g\yy	.	32aa\	.	.	.	.	.	.	.	.	.	.
.	.	.	.	.	32bb-\JJJ)	.	.	.	.	.	.	.	.	.	.
8C\J	.	.	.	.	(32ddd\LLL	.	.	.	.	.	.	.	.	.	.
.	.	.	.	.	32bb-\	.	.	.	.	.	.	.	.	.	.
.	.	16b-/Jkyy	16g\Jkyy	.	32aa\	.	.	.	.	.	.	.	.	.	.
.	.	.	.	.	32bb-\JJJ)	.	.	.	.	.	.	.	.	.	.
=49	=49	=49	=49	=49	=49	=49	=49	=49	=49	=49	=49	=49	=49	=49	=49
8F\L	.	16a/KLyy	16f\KLyy	.	16aa\LL	.	4f\	-re-	4f\	-re-	4ff\	-re-	2f\	2a\	2ccc\
.	.	8a/yy	8f\yy	.	16ccc\JJ	.	.	.	.	.	.	.	.	.	.
8C\	.	.	.	.	32r	.	.	.	.	.	.	.	.	.	.
.	.	.	.	.	32ccc\LLL	.	.	.	.	.	.	.	.	.	.
.	.	8a/yy	8f\yy	.	32bbn\	.	.	.	.	.	.	.	.	.	.
.	.	.	.	.	32ccc\JJJ	.	.	.	.	.	.	.	.	.	.
8AA\	.	.	.	.	(32ddd\LLL	.	4F\	-re	4F/	-re	4ff\	-re	.	.	.
.	.	.	.	.	32ccc\	.	.	.	.	.	.	.	.	.	.
.	.	8a/yy	8f\yy	.	32bb-X\	.	.	.	.	.	.	.	.	.	.
.	.	.	.	.	32aa\JJJ)	.	.	.	.	.	.	.	.	.	.
8FF\J	.	.	.	.	(32gg\LLL	.	.	.	.	.	.	.	.	.	.
.	.	.	.	.	32ff\	.	.	.	.	.	.	.	.	.	.
.	.	16a/Jkyy	16f\Jkyy	.	32ee\	.	.	.	.	.	.	.	.	.	.
.	.	.	.	.	32dd\JJJ)	.	.	.	.	.	.	.	.	.	.
*	*	*v	*v	*	*	*	*	*	*	*	*	*	*	*	*
!	!	!LO:LB:g=original	!	!LO:LB:g=original	!	!	!	!LO:LB:g=original	!	!	!	!	!	!
=50	=50	=50	=50	=50	=50	=50	=50	=50	=50	=50	=50	=50	=50	=50
!LO:TX:t=P:problem=mixed beam	!	!	!	!	!	!LO:TX:t=P:problem=mixed beam	!	!LO:TX:t=P:problem=mixed beam	!	!	!	!	!	!
8B-\L	.	8b-\L	.	8dd\L	.	8B-\L	no-	8B-\L	no-	8dd\L	no-	4f\	4a\	4ddd\
8G\	.	16dd\L	.	16bb-\L	.	8d\	.	8d\	.	16bb-\L	.	.	.	.
.	.	16b-\JJ	.	16gg\JJ	.	.	.	.	.	16gg\JJ	.	.	.	.
8c\	.	16b-/LL	.	16gg\LL	.	8c\	.	8c\	.	8ff\L	.	4c\	4g\	4r
.	.	16a/	.	16ff\	.	.	.	.	.	.	.	.	.	.
8C/J	.	16a/	.	16ff\	.	8C/J	.	8C/J	.	8ee\J	.	.	.	.
.	.	16g/JJ	.	16ee\JJ	.	.	.	.	.	.	.	.	.	.
=51	=51	=51	=51	=51	=51	=51	=51	=51	=51	=51	=51	=51	=51	=51
!LO:TX:t=P:problem=mixed beam	!	!	!	!	!	!	!	!	!	!	!	!	!	!
8F\L	.	8a/L	.	8ff\L	.	4F\	-bis	4F/	-bis	4ff\	-bis	8A/L	8f\L	8fff\L
8C\	.	8a/J	.	8ff\	.	.	.	.	.	.	.	8A/J	8f\J	8fff\
8FF/J	.	8a/	.	8ff\J	.	4r	.	4r	.	4r	.	4A/	4f\	8fff\J
8r	.	8r	.	8r	.	.	.	.	.	.	.	.	.	8r
!LO:LB:g=original	!	!	!	!	!	!	!	!	!	!	!	!	!	!
=52	=52	=52	=52	=52	=52	=52	=52	=52	=52	=52	=52	=52	=52	=52
*	*	*	*	*	*	*	*	*	*	*	*	*	*Xtuplet	*
!	!LO:DY:t=p:	!	!	!	!	!	!	!	!	!	!	!	!	!
!LO:TX:t=P:problem=mixed beam	!	!LO:TX:a:t=1	!	!	!	!LO:N:vis=00	!	!LO:N:vis=00	!	!LO:N:vis=00	!	!LO:TX:a:t=1	!LO:TX:a:t=:global:problem=brak klamry, brak numeru	!
8F\L	p	2r	.	24f/LL	.	0r	.	0r	.	0r	.	2r	24f\LL	24ff\LL
.	.	.	.	24c/	.	.	.	.	.	.	.	.	24c\	24cc\
.	.	.	.	24f/JJ	.	.	.	.	.	.	.	.	24f\JJ	24ff\JJ
8FF/J	.	.	.	24f/LL	.	.	.	.	.	.	.	.	24f\LL	24ff\LL
.	.	.	.	24f/	.	.	.	.	.	.	.	.	24f\	24ff\
.	.	.	.	24f/JJ	.	.	.	.	.	.	.	.	24f\JJ	24ff\JJ
4r	.	.	.	24f/LL	.	.	.	.	.	.	.	.	24f\LL	24ff\LL
.	.	.	.	24g/	.	.	.	.	.	.	.	.	24g\	24gg\
.	.	.	.	24a/JJ	.	.	.	.	.	.	.	.	24a\JJ	24aa\JJ
.	.	.	.	24g/LL	.	.	.	.	.	.	.	.	24g\LL	24gg\LL
.	.	.	.	24a/	.	.	.	.	.	.	.	.	24a\	24aa\
.	.	.	.	24b-/JJ	.	.	.	.	.	.	.	.	24b-\JJ	24bb-\JJ
!	!	!	!	!	!	!	!	!	!	!	!	!LO:LB:g=original	!	!
=53	=53	=53	=53	=53	=53	=53	=53	=53	=53	=53	=53	=53	=53	=53yy
*	*	*	*	*	*	*	*	*	*	*	*	*Xtuplet	*	*
!LO:TX:t=P:problem=mixed beam	!	!	!	!	!	!	!	!	!	!	!	!LO:TX:a:t=problem:brak klamry, brak numeru:global	!	!
8F\L	.	24f/LL	.	24a/LL	.	.	.	.	.	.	.	24f\LL	24a\LL	24aa\LL
.	.	24c/	.	24f/	.	.	.	.	.	.	.	24c\	24f\	24ff\
.	.	24f/JJ	.	24a/JJ	.	.	.	.	.	.	.	24f\JJ	24a\JJ	24aa\JJ
8FF/J	.	24f/LL	.	24a/LL	.	.	.	.	.	.	.	24f\LL	24a\LL	24aa\LL
.	.	24f/	.	24a/	.	.	.	.	.	.	.	24f\	24a\	24aa\
.	.	24f/JJ	.	24a/JJ	.	.	.	.	.	.	.	24f\JJ	24a\JJ	24aa\JJ
!	!	!	!	!	!	!	!	!	!	!	!	!	!LO:LB:g=original	!
4r	.	24f/LL	.	24a\LL	.	.	.	.	.	.	.	24f\LL	24a\LL	24aa\LL
.	.	24g/	.	24b-\	.	.	.	.	.	.	.	24g\	24b-\	24bb-\
.	.	24a/JJ	.	24cc\JJ	.	.	.	.	.	.	.	24a\JJ	24cc\JJ	24ccc\JJ
.	.	24g/LL	.	24b-\LL	.	.	.	.	.	.	.	24g\LL	24b-\LL	24bb-\LL
.	.	24a/	.	24cc\	.	.	.	.	.	.	.	24a\	24cc\	24ccc\
.	.	24b-/JJ	.	24dd\JJ	.	.	.	.	.	.	.	24b-\JJ	24dd\JJ	24ddd\JJ
=54	=54	=54	=54	=54	=54	=54	=54	=54	=54	=54	=54	=54	=54	=54
8F\	.	24a/LL	.	24cc\LL	.	.	.	.	.	.	.	24a\LL	24cc\LL	24ccc\LL
.	.	24f/	.	24a\	.	.	.	.	.	.	.	24f\	24a\	24aa\
!	!	!	!	!LO:TX:a:t=SIC:s=16cc	!	!	!	!	!	!	!	!	!	!
.	.	24a/JJ	.	24b-\JJ	.	.	.	.	.	.	.	24a\JJ	24cc\JJ	24ccc\JJ
8r	.	24a/LL	.	24cc\LL	.	.	.	.	.	.	.	24a\LL	24cc\LL	24ccc\LL
.	.	24a/	.	24cc\	.	.	.	.	.	.	.	24a\	24cc\	24ccc\
.	.	24a/JJ	.	24cc\JJ	.	.	.	.	.	.	.	24a\JJ	24cc\JJ	24ccc\JJ
!	!	!	!	!	!	!	!	!	!	!	!	!	!	!LO:LB:g=original
8F\	.	24a\LL	.	24cc\LL	.	.	.	.	.	.	.	24a\LL	24cc\LL	24ccc\LL
.	.	24b-\	.	24dd\	.	.	.	.	.	.	.	24b-\	24dd\	24ddd\
.	.	24cc\JJ	.	24ee\JJ	.	.	.	.	.	.	.	24cc\JJ	24ee\JJ	24eeen\JJ
8r	.	24dd\LL	.	24ff\LL	.	.	.	.	.	.	.	24dd\LL	24ff\LL	24fff\LL
.	.	24cc\	.	24ee\	.	.	.	.	.	.	.	24cc\	24ee\	24eee\
.	.	24b-\JJ	.	24dd\JJ	.	.	.	.	.	.	.	24b-\JJ	24dd\JJ	24ddd\JJ
=55	=55	=55	=55	=55	=55	=55	=55	=55	=55	=55	=55	=55	=55	=55
8F\	.	24a/LL	.	24cc\LL	.	.	.	.	.	.	.	24a\LL	24cc\LL	24ccc\LL
.	.	24f/	.	24a\	.	.	.	.	.	.	.	24f\	24a\	24aa\
!	!	!	!	!LO:TX:a:t=SIC:s=16cc	!	!	!	!	!	!	!	!	!	!
.	.	24a/JJ	.	24b-\JJ	.	.	.	.	.	.	.	24a\JJ	24cc\JJ	24ccc\JJ
8r	.	24a/LL	.	24cc\LL	.	.	.	.	.	.	.	24a\LL	24cc\LL	24ccc\LL
.	.	24a/	.	24cc\	.	.	.	.	.	.	.	24a\	24cc\	24ccc\
.	.	24a/JJ	.	24cc\JJ	.	.	.	.	.	.	.	24a\JJ	24cc\JJ	24ccc\JJ
!	!	!	!	!LO:LB:g=original	!	!	!	!	!	!	!	!	!	!
8F\	.	24a\LL	.	24cc\LL	.	.	.	.	.	.	.	24a\LL	24cc\LL	24ccc\LL
.	.	24b-\	.	24dd\	.	.	.	.	.	.	.	24b-\	24dd\	24ddd\
.	.	24cc\JJ	.	24ee\JJ	.	.	.	.	.	.	.	24cc\JJ	24ee\JJ	24eee\JJ
8r	.	24dd\LL	.	24ff\LL	.	.	.	.	.	.	.	24dd\LL	24ff\LL	24fff\LL
.	.	24cc\	.	24ee\	.	.	.	.	.	.	.	24cc\	24ee\	24eee\
.	.	24b-\JJ	.	24dd\JJ	.	.	.	.	.	.	.	24b-\JJ	24dd\JJ	24ddd\JJ
!	!	!LO:LB:g=original	!	!	!	!	!	!	!	!	!	!	!	!
=56	=56	=56	=56	=56	=56	=56	=56	=56	=56	=56	=56	=56	=56	=56
!	!	!	!	!	!	!LO:N:vis=00	!	!LO:N:vis=00	!	!LO:N:vis=00	!	!	!	!
8F\	.	24a\LL	.	24cc\LL	.	0r	.	0r	.	0r	.	24a\LL	24cc\LL	24ccc\LL
.	.	24dd\	.	24ff\	.	.	.	.	.	.	.	24dd\	24ff\	24fff\
.	.	24cc\JJ	.	24ee\JJ	.	.	.	.	.	.	.	24cc\JJ	24ee\JJ	24eee\JJ
8r	.	24b-\LL	.	24dd\LL	.	.	.	.	.	.	.	24b-\LL	24dd\LL	24ddd\LL
.	.	24a\	.	24cc\	.	.	.	.	.	.	.	24a\	24cc\	24ccc\
.	.	24g\JJ	.	24b-\JJ	.	.	.	.	.	.	.	24g\JJ	24b-\JJ	24bb-\JJ
!	!	!	!	!	!	!	!	!	!	!	!	!LO:LB:g=original	!	!
8C/	.	8f/L	.	8a/L	.	.	.	.	.	.	.	8f\L	8a\L	8aa\L
8r	.	8c/J	.	8g/J	.	.	.	.	.	.	.	8c\J	8g\J	8gg\J
=57	=57	=57	=57	=57	=57	=57	=57	=57	=57	=57	=57	=57	=57	=57
!	!	!LO:TX:t=P:problem=mixed beam	!	!LO:TX:t=P:problem=mixed beam	!	!	!	!	!	!	!	!	!LO:TX:t=P:problem=mixed beam	!
4F\	.	8f/L	.	8f/L	.	.	.	.	.	.	.	8A/L	8f\L	8ff\L
.	.	8cc\	.	8aa\	.	.	.	.	.	.	.	8F/	8F/	8aa\
4C\	.	8dd\	.	8bb-\	.	.	.	.	.	.	.	8F/	8F/	8bb-\
.	.	8b-\J	.	8gg\J	.	.	.	.	.	.	.	8F/J	8F/J	8gg\J
=58	=58	=58	=58	=58	=58	=58	=58	=58	=58	=58	=58	=58	=58	=58
4C/	.	4b-\	.	4gg\	.	.	.	.	.	.	.	2F/	2F/	4gg\
8FF/	.	8a\	.	8ff\	.	.	.	.	.	.	.	.	.	8ff\
!LO:TX:b:t=Seg(ue) Dona	!	!	!	!	!	!	!	!	!	!	!	!	!	!
8r	.	8r	.	8r	.	.	.	.	.	.	.	.	.	8r
=59	=59	=59	=59	=59	=59	=59	=59	=59	=59	=59	=59	=59	=59	=59
!LO:TX:a:t=problem:brak taktu	!	!LO:TX:a:t=problem:brak taktu	!	!LO:TX:a:t=problem:brak taktu	!	!	!	!	!	!	!	!	!	!LO:TX:a:t=problem:brak taktu
2ryy	.	2ryy	.	2ryy	.	.	.	.	.	.	.	4F/	4F/	2ryy
.	.	.	.	.	.	.	.	.	.	.	.	4r	4r	.
==	==	==	==	==	==	==	==	==	==	==	==	==	==	==
*-	*-	*-	*-	*-	*-	*-	*-	*-	*-	*-	*-	*-	*-	*-
!!!system-decoration: [(g1)][(g2)][(g3)][(g4)][(g5)]
!!!AIN: 3 empty 1 flt 1 organ 1 tenor 2 violn 1 vox
!!!ENC: Anna Matuszewska
!!!END: 2020-09-07
